X: 1
T: the Green Meadow
R: reel
Z: 2011 John Chambers <jc:trillian.mit.edu>
S: printed MS of unknown origin
M: C|
L: 1/8
K: A
cB |\
"A"A2AB cBce | "D"fgaf "A"ecBA | "Bm"FB~B2 BcBA | ~B3c "E7"BAFE |
"A"A3B {d}cBce | "D"fa{b}af "A"ecBA | "D"FA~A2 ABAF | "E7"EAAB "A"A2 :|
|: AB |\
"A"c2{d}cA "E7"~B3c | "A"ABAF E2CE | "Bm"FB~B2 BcBA | FBBA "E7"B{c}BAB |
"A"c3A "E7"B2B{c}B | "F#m"A2F2 "C#m"E3CE | "D"FA~A2 ABAF | "E7"EAAB "A"A2 :|
